!!!COM: Johannes Brahms
!!!CNT: Deutscher
!!!TXO: Deutsche
!!!OTL: Die Spro2de
!!!OPS: Op. 58
!!!ONM: No. 3
!!!LYR: Aus dem Kalabresischen von Kopisch
!!!ONB: Original key: A Major
!!!ENC: Ayako Kataoka        
!!!EED: Leigh VanHandel
!!!YOR: C.F. Peters, Brahms Lieder fu2r eine Singstimme mit Klavierbegleitung, Band III, ausgabe fu2r tiefere Stimme
!!!ODT: 1871/
!!NB: Vocal melody and text only encoded.
**kern	**silbe
*clefG2	*
*k[f#]	*
*M2/4	*
*MM[moderato]	*
!! tempo indication: Grazioso
=4	=4
4r	.
8r	.
{8d	{Ich
=5	=5
8.g	sa-
16b	-he
8dd	ei-
8b	-ne
=6	=6
4g	Tig-
4e-}	-rin}
=7	=7
8r	.
{8d	{im
8e-	dunk-
8fn	-len
=8	=8
4g	Hai-
8d}	-ne,}
{8d	{im
=9	=9
(8.e-	dunk-
16g)	|
(8.fn	-len
16cc)	|
=10	=10
4b	Hai-
8d}	-ne,}
8r	.
=11	=11
4r	.
8r	.
{8g	{und
=12	=12
8dd	doch
8dd	mit
8cc#	mei-
8g	-nen
=13	=13
4ccn	Tra2-
4b}	-nen}
=14	=14
8r	.
{8cc	{konnt
8e	ich
8a	sie
=15	=15
4b	za2h-
8b}	-men,}
8r	.
=16	=16
8r	.
{8ee	{konnt
8g	ich
8cc	sie
=17	=17
(4.dd	za2h-
8a)	|
=18	=18
4b}	-men.}
4r	.
=21	=21
4r	.
8r	.
{8b	{Und
=22	=22
*M3/4	*
4dd	du,
8r	.
8ffn	so
8ee	ei-
8dd	-ne
=23	=23
*M2/4	*
4cc	zar-
4b}	-te}
=24	=24
8r	.
{8ffn	{hold-
8ee	-sel-
8dd	-ge
=25	=25
4cc	Klei-
8b}	-ne,}
{8dd	{du
=26	=26
*M3/4	*
4.ee-	lachst
8ffn	zu
8ee-	mei-
8dd-	-nem
=27	=27
*M2/4	*
4dd-	Seuf-
8cc	-zen
8cc	und
=28	=28
4.ee-	bit-
8dd-	-tern
=29	=29
4dd-	Gra2-
4cc}	-men,}
=30	=30
4r	.
{4ee-	{du
=31	=31
4ddn	lachst
16r	.
16g	zu
16a	mei-
16b-	-nem
=32	=32
4.dd	bit-
8cc	-tern
=33	=33
(4.b-	Gra2-
8a)	|
=34	=34
4g}	-men.}
4r	.
*-	*-
